!!!OTL: Wugenggu
!!!ARE: Asia, China,ÿNingxia, Guyuan
!! I, 194
!!!SCT: C1430
!!!YEM: Copyright 1995, estate of Helmut Schaffrath.
**kern
*ICvox
*Ivox
*M2/4
*k[b-]
*F:
{8dd
16dd
16cc
8a
8cc
=1
8.dd
16ff
8dd
8cc
=2
8dd
16dd
16cc
8a
8cc
=3
2dd}
=4
{8dd
8dd
8dd
8cc
=5
8dd
8ff
8dd
8cc
=6
8dd
16dd
16cc
8a
16a
16cc
=7
2dd}
=8
{8dd
16dd
16cc
8dd
8cc
=9
8.a
16cc
8f
8g
=10
8f
16f
16g
8a
8f
=11
2d}
==
!!!AGN: Xiaodiao, Biaoda aiqing
!!!ONB: ESAC (Essen Associative Code) Database: HUANG
!!!AMT: simple duple
!!!AIN: vox
!!!EED: Helmut Schaffrath
!!!EEV: 1.0
*-
